icons/egghead.svg

<?xml version="1.0" encoding="UTF-8"?>
<svg width="256px" height="263px" viewBox="0 0 256 263" version="1.1" xmlns="http://www.w3.org/2000/svg" xmlns:xlink="http://www.w3.org/1999/xlink" preserveAspectRatio="xMidYMid">
	<g>
		<path d="M128,262.399221 C113.6,262.399221 100,259.208957 87.2,254.423561 C74.4,248.840599 63.2,241.662505 54.4,231.294146 C44.8,221.723354 37.6,210.55743 32.8,197.796373 C31.2,193.010977 29.6,188.225581 28,182.642619 L27.2,182.642619 L26.4,174.666959 C16.8,170.679129 9.6,161.108336 7.2,152.33511 C4,141.169186 0.8,124.420299 0,109.266545 C0,97.3030546 6.4,86.1371303 17.6,81.3517342 C24.8,78.1614701 35.2,74.971206 47.2,73.376074 C55.2,56.6271875 64,41.4734331 73.6,30.3075088 C90.4,10.3683583 108.8,0 128,0 C147.2,0 165.6,10.3683583 182.4,30.3075088 C192,41.4734331 200.8,55.8296215 208,73.376074 C220,75.7687721 230.4,78.1614701 238.4,81.3517342 C249.6,86.1371303 256,97.3030546 256,109.266545 C255.2,126.812997 251.2,145.954582 248.8,153.132676 C246.4,162.703468 239.2,172.274261 229.6,175.464525 L228.8,183.440185 L228,183.440185 C227.2,188.225581 225.6,193.808543 223.2,198.593939 C218.4,211.354996 211.2,222.52092 201.6,232.091712 C192,241.662505 180.8,249.638165 168.8,255.221127 C156,260.006523 142.4,262.399221 128,262.399221 Z" fill="#FFFFFF"></path>
		<path d="M126.918924,19.2475113 C172.380187,19.2475113 209.068224,116.550566 209.068224,162.011829 C209.068224,207.473092 172.380187,244.161129 126.918924,244.161129 C81.4576609,244.161129 44.769624,207.473092 44.769624,162.011829 C44.769624,116.550566 81.4576609,19.2475113 126.918924,19.2475113 Z" fill="#FCFBFA"></path>
		<path d="M231.400073,97.4089814 L197.9023,109.372472 C197.9023,109.372472 202.687696,125.323792 203.485262,125.323792 L236.983035,121.335962 L231.400073,97.4089814 Z" fill="#252526"></path>
		<path d="M23.2353414,97.4089814 L56.7331143,109.372472 C56.7331143,109.372472 51.9477181,125.323792 51.1501521,125.323792 L17.6523792,121.335962 L23.2353414,97.4089814 Z" fill="#252526"></path>
		<path d="M92.6235853,95.0162833 C101.396811,95.0162833 102.991944,102.194378 102.991944,103.78951 C103.78951,108.574906 104.587076,114.955434 105.384642,121.335962 C105.384642,122.931094 105.384642,124.526226 104.587076,126.121358 C103.78951,122.133528 103.78951,118.145698 102.991944,114.157868 C102.991944,112.562736 100.599245,105.384642 92.6235853,105.384642 C87.8381891,105.384642 71.0893027,106.182208 55.1379822,108.574906 C55.9355483,104.587076 57.5306803,101.396811 59.1258123,97.4089814 C73.4820007,95.0162833 87.8381891,94.2187173 92.6235853,95.0162833 Z" fill="#E0E0E0"></path>
		<path d="M209.068224,158.023999 C179.558282,156.428867 154.036169,146.858075 148.453207,143.667811 C143.667811,141.275113 138.084848,137.287282 136.489716,126.121358 C135.69215,138.882415 138.084848,150.048339 149.250773,155.631301 C150.048339,156.428867 172.380187,166.797225 208.270658,169.189923 L208.270658,162.011829 C209.068224,160.416697 209.068224,158.821565 209.068224,158.023999 Z" fill="#E0E0E0"></path>
		<path d="M45.56719,158.023999 C75.0771328,156.428867 100.599245,146.858075 106.182208,143.667811 C110.967604,141.275113 116.550566,137.287282 118.145698,126.121358 C118.943264,138.882415 116.550566,150.048339 105.384642,155.631301 C104.587076,156.428867 82.255227,166.797225 46.364756,169.189923 L46.364756,162.011829 C45.56719,160.416697 45.56719,158.821565 45.56719,158.023999 Z" fill="#E0E0E0"></path>
		<path d="M161.214263,95.0162833 C152.441037,95.0162833 150.845905,102.194378 150.845905,103.78951 C150.048339,108.574906 149.250773,114.955434 148.453207,121.335962 C148.453207,122.931094 148.453207,124.526226 149.250773,126.121358 C150.048339,122.133528 150.048339,118.145698 150.845905,114.157868 C150.845905,112.562736 153.238603,105.384642 161.214263,105.384642 C165.999659,105.384642 182.748546,106.182208 198.699866,108.574906 C197.9023,104.587076 196.307168,101.396811 194.712036,97.4089814 C180.355848,95.0162833 165.999659,94.2187173 161.214263,95.0162833 Z" fill="#E0E0E0"></path>
		<path d="M55.1379822,85.4454911 C63.1136424,66.3039065 72.6844347,48.7574541 83.052793,36.7939637 C96.6114154,20.0450773 111.76517,11.271851 126.918924,11.271851 C142.072679,11.271851 156.428867,20.0450773 170.785055,36.7939637 C181.153414,49.5550201 190.724206,66.3039065 198.699866,85.4454911 L198.699866,86.2430571 L197.9023,86.2430571 C194.712036,86.2430571 193.116904,85.4454911 189.92664,85.4454911 L189.92664,85.4454911 L189.92664,85.4454911 C181.153414,63.9112085 165.202093,36.7939637 145.262943,24.8304734 C138.882415,21.6402093 133.299452,19.2475113 126.918924,19.2475113 C120.538396,19.2475113 114.955434,20.8426433 108.574906,24.8304734 C88.6357551,35.9963977 73.4820007,63.9112085 63.9112085,85.4454911 L63.9112085,85.4454911 L63.9112085,85.4454911 C60.7209444,85.4454911 59.1258123,86.2430571 55.9355483,86.2430571 L55.1379822,86.2430571 L55.1379822,85.4454911 Z" fill="#56555C"></path>
		<path d="M209.86579,147.655641 L203.485262,147.655641 L202.687696,147.655641 L202.687696,146.858075 C201.092564,130.906754 196.307168,113.360302 189.92664,95.8138493 L189.129074,94.2187173 L190.724206,94.2187173 C193.116904,94.2187173 195.509602,95.0162833 197.9023,95.0162833 L198.699866,95.0162833 L198.699866,95.8138493 C204.282828,113.360302 209.068224,131.70432 210.663356,146.858075 L210.663356,147.655641 L209.86579,147.655641 Z" fill="#56555C"></path>
		<path d="M202.687696,108.574906 C201.092564,104.587076 200.294998,100.599245 198.699866,96.6114154 L198.699866,95.8138493 L197.9023,95.8138493 C195.509602,95.0162833 193.116904,95.0162833 190.724206,95.0162833 L189.129074,95.0162833 L189.92664,96.6114154 C191.521772,100.599245 192.319338,104.587076 193.91447,108.574906 C197.9023,107.77734 200.294998,107.77734 202.687696,108.574906 Z" fill="#252526"></path>
		<path d="M43.9720579,146.060509 C45.56719,130.906754 50.3525861,112.562736 55.9355483,95.0162833 L55.9355483,94.2187173 L56.7331143,94.2187173 C59.1258123,94.2187173 61.5185104,93.4211513 63.9112085,93.4211513 L65.5063405,93.4211513 L64.7087745,95.0162833 C58.3282463,112.562736 54.3404162,130.906754 51.9477181,146.060509 L51.9477181,146.858075 L51.1501521,146.858075 L44.769624,146.858075 L43.9720579,146.858075 L43.9720579,146.060509 Z" fill="#56555C"></path>
		<path d="M56.7331143,95.0162833 L56.7331143,95.0162833 L56.7331143,95.0162833 C54.3404162,99.8016794 53.5428502,103.78951 51.9477181,107.77734 C55.9355483,106.979774 57.5306803,106.979774 60.7209444,106.979774 C62.3160764,102.991944 63.1136424,99.0041134 64.7087745,95.0162833 L65.5063405,93.4211513 L63.9112085,93.4211513 C61.5185104,94.2187173 59.1258123,95.0162833 56.7331143,95.0162833 Z" fill="#252526"></path>
		<path d="M126.918924,251.339224 C114.955434,251.339224 102.991944,248.946525 91.8260192,244.161129 C80.6600949,239.375733 71.0893027,232.995205 63.1136424,224.221979 C55.1379822,215.448753 48.7574541,205.87796 43.9720579,194.712036 C39.1866618,183.546112 37.5915298,170.785055 37.5915298,158.023999 L37.5915298,157.226433 L38.3890958,157.226433 L45.56719,157.226433 L46.364756,157.226433 L46.364756,158.023999 C45.56719,169.987489 47.959888,180.355848 51.9477181,191.521772 C55.9355483,201.89013 61.5185104,210.663356 68.6966046,218.639017 C75.8746988,226.614677 85.4454911,232.995205 95.0162833,236.983035 C105.384642,241.768431 115.753,243.363563 126.918924,243.363563 C138.084848,243.363563 149.250773,240.970865 158.821565,236.983035 C168.392357,232.995205 177.96315,226.614677 185.141244,218.639017 C192.319338,210.663356 198.699866,201.89013 201.89013,191.521772 C205.87796,181.153414 207.473092,169.987489 207.473092,158.023999 L207.473092,157.226433 L208.270658,157.226433 L215.448753,157.226433 L216.246319,157.226433 L216.246319,158.023999 C217.043885,170.785055 214.651187,182.748546 209.86579,194.712036 C205.87796,205.87796 199.497432,215.448753 190.724206,224.221979 C182.748546,232.995205 172.380187,239.375733 162.011829,244.161129 C151.643471,248.148959 139.679981,251.339224 126.918924,251.339224 Z" fill="#56555C"></path>
		<path d="M46.364756,168.392357 L46.364756,158.023999 L46.364756,157.226433 L45.56719,157.226433 L38.3890958,157.226433 L37.5915298,157.226433 L37.5915298,158.023999 L37.5915298,168.392357 L37.5915298,168.392357 L46.364756,168.392357 L46.364756,168.392357 Z" fill="#252526"></path>
		<path d="M216.246319,157.226433 L216.246319,157.226433 L209.068224,157.226433 L208.270658,157.226433 L208.270658,158.023999 L208.270658,168.392357 L216.246319,168.392357 L216.246319,157.226433 L216.246319,157.226433 Z" fill="#252526"></path>
		<path d="M221.031715,164.404527 C202.687696,164.404527 185.93881,159.619131 169.987489,155.631301 C162.011829,153.238603 154.833735,149.250773 149.250773,146.858075 L149.250773,146.060509 C135.69215,139.679981 134.894584,125.323792 135.69215,113.360302 C135.69215,110.170038 134.894584,106.182208 131.70432,103.78951 C130.109188,102.991944 128.514056,102.194378 126.918924,102.194378 C125.323792,102.194378 122.931094,102.991944 122.133528,103.78951 C118.943264,106.182208 118.145698,110.170038 118.145698,113.360302 C119.74083,125.323792 118.943264,138.882415 104.587076,145.262943 L104.587076,145.262943 C99.0041134,147.655641 91.8260192,153.238603 83.850359,155.631301 C67.8990386,159.619131 51.1501521,164.404527 32.8061336,164.404527 L32.8061336,164.404527 C25.6280394,164.404527 19.2475113,157.226433 17.6523792,150.048339 C15.2596811,139.679981 11.271851,122.931094 11.271851,108.574906 C11.271851,102.991944 14.4621151,96.6114154 20.0450773,94.2187173 C39.1866618,85.4454911 78.2673969,82.255227 95.0162833,82.255227 C101.396811,82.255227 106.182208,84.647925 110.170038,88.6357551 C115.753,86.2430571 121.335962,84.647925 126.918924,84.647925 C132.501886,84.647925 138.084848,86.2430571 143.667811,88.6357551 C146.858075,85.4454911 151.643471,82.255227 158.821565,82.255227 C168.392357,82.255227 211.460922,83.850359 233.792771,93.4211513 C239.375733,95.8138493 242.565997,101.396811 242.565997,106.979774 C241.768431,121.335962 238.578167,139.679981 236.185469,150.048339 C234.590337,157.226433 228.209809,164.404527 221.031715,164.404527 L221.031715,164.404527 Z M161.214263,95.0162833 C153.238603,95.0162833 151.643471,102.194378 150.845905,102.991944 C150.048339,106.979774 149.250773,113.360302 148.453207,120.538396 C148.453207,126.918924 150.845905,131.70432 155.631301,134.097018 C173.177753,142.072679 193.91447,146.060509 217.841451,146.060509 C219.436583,146.060509 221.031715,144.465377 221.829281,142.870245 C224.221979,134.097018 227.412243,120.538396 227.412243,107.77734 C227.412243,106.979774 226.614677,105.384642 225.817111,105.384642 C210.663356,97.4089814 174.772885,95.0162833 161.214263,95.0162833 Z M27.2231715,105.384642 C26.4256055,106.182208 25.6280394,106.979774 25.6280394,107.77734 C25.6280394,120.538396 28.8183035,134.097018 31.2110016,142.870245 C32.0085676,144.465377 33.6036996,146.060509 35.1988317,146.060509 C59.9233784,146.060509 79.8625289,142.072679 97.4089814,134.097018 C102.194378,131.70432 104.587076,126.918924 104.587076,120.538396 C104.587076,114.955434 103.78951,109.372472 102.194378,102.991944 C102.194378,101.396811 100.599245,95.0162833 91.8260192,95.0162833 C85.4454911,95.0162833 46.364756,96.6114154 27.2231715,105.384642 Z" fill="#252526"></path>
	</g>
</svg>

<svg xmlns="http://www.w3.org/2000/svg" viewBox="0 0 256 262.399">
  <path fill="#fff" d="M128 262.4c-14.4 0-28-3.191-40.8-7.976-12.8-5.583-24-12.761-32.8-23.13-9.6-9.57-16.8-20.737-21.6-33.498-1.6-4.785-3.2-9.57-4.8-15.153h-.8l-.8-7.976c-9.6-3.988-16.8-13.559-19.2-22.332C4 141.17.8 124.42 0 109.267c0-11.964 6.4-23.13 17.6-27.915 7.2-3.19 17.6-6.38 29.6-7.976 8-16.749 16.8-31.903 26.4-43.068C90.4 10.368 108.8 0 128 0c19.2 0 37.6 10.368 54.4 30.308C192 41.473 200.8 55.83 208 73.376c12 2.393 22.4 4.785 30.4 7.976 11.2 4.785 17.6 15.951 17.6 27.915-.8 17.546-4.8 36.688-7.2 43.866-2.4 9.57-9.6 19.141-19.2 22.332l-.8 7.975h-.8c-.8 4.786-2.4 10.369-4.8 15.154-4.8 12.761-12 23.927-21.6 33.498-9.6 9.57-20.8 17.546-32.8 23.13-12.8 4.785-26.4 7.177-40.8 7.177z"/>
  <path fill="#fcfbfa" d="M126.919 19.248c45.461 0 82.15 97.303 82.15 142.764 0 45.461-36.689 82.15-82.15 82.15-45.461 0-82.15-36.689-82.15-82.15 0-45.461 36.689-142.764 82.15-142.764z"/>
  <path fill="#252526" d="m231.4 97.409-33.498 11.963s4.786 15.952 5.583 15.952l33.498-3.988zM23.235 97.409l33.498 11.963s-4.785 15.952-5.583 15.952l-33.498-3.988z"/>
  <path fill="#e0e0e0" d="M92.624 95.016c8.773 0 10.368 7.178 10.368 8.774.798 4.785 1.595 11.165 2.393 17.546 0 1.595 0 3.19-.798 4.785-.797-3.987-.797-7.975-1.595-11.963 0-1.595-2.393-8.773-10.368-8.773-4.786 0-21.535.797-37.486 3.19.798-3.988 2.393-7.178 3.988-11.166 14.356-2.393 28.712-3.19 33.498-2.393zM209.068 158.024c-29.51-1.595-55.032-11.166-60.615-14.356-4.785-2.393-10.368-6.38-11.963-17.547-.798 12.761 1.595 23.927 12.76 29.51.798.798 23.13 11.166 59.02 13.559v-7.178c.798-1.595.798-3.19.798-3.988zM45.567 158.024c29.51-1.595 55.032-11.166 60.615-14.356 4.786-2.393 10.369-6.38 11.964-17.547.797 12.761-1.595 23.927-12.761 29.51-.798.798-23.13 11.166-59.02 13.559v-7.178c-.798-1.595-.798-3.19-.798-3.988zM161.214 95.016c-8.773 0-10.368 7.178-10.368 8.774-.798 4.785-1.595 11.165-2.393 17.546 0 1.595 0 3.19.798 4.785.797-3.987.797-7.975 1.595-11.963 0-1.595 2.393-8.773 10.368-8.773 4.786 0 21.535.797 37.486 3.19-.798-3.988-2.393-7.178-3.988-11.166-14.356-2.393-28.712-3.19-33.498-2.393z"/>
  <path fill="#56555c" d="M55.138 85.445c7.976-19.141 17.546-36.688 27.915-48.651 13.558-16.749 28.712-25.522 43.866-25.522s29.51 8.773 43.866 25.522c10.368 12.761 19.94 29.51 27.915 48.651v.798h-.798c-3.19 0-4.785-.798-7.975-.798-8.774-21.534-24.725-48.651-44.664-60.615-6.38-3.19-11.964-5.582-18.344-5.582-6.38 0-11.964 1.595-18.344 5.582-19.94 11.166-35.093 39.081-44.664 60.615-3.19 0-4.785.798-7.975.798h-.798zM209.866 147.656h-7.178v-.798c-1.595-15.951-6.38-33.498-12.761-51.044l-.798-1.595h1.595c2.393 0 4.786.797 7.178.797h.798v.798c5.583 17.546 10.368 35.89 11.963 51.044v.798z"/>
  <path fill="#252526" d="M202.688 108.575c-1.595-3.988-2.393-7.976-3.988-11.964v-.797h-.798c-2.392-.798-4.785-.798-7.178-.798h-1.595l.798 1.595c1.595 3.988 2.392 7.976 3.987 11.964 3.988-.798 6.381-.798 8.774 0z"/>
  <path fill="#56555c" d="M43.972 146.06c1.595-15.153 6.38-33.497 11.964-51.044v-.797h.797c2.393 0 4.786-.798 7.178-.798h1.595l-.797 1.595c-6.38 17.547-10.369 35.89-12.761 51.045v.797h-7.976z"/>
  <path fill="#252526" d="M56.733 95.016c-2.393 4.786-3.19 8.774-4.785 12.761 3.988-.797 5.583-.797 8.773-.797 1.595-3.988 2.393-7.976 3.988-11.964l.797-1.595h-1.595c-2.392.798-4.785 1.595-7.178 1.595z"/>
  <path fill="#56555c" d="M126.919 251.34c-11.964 0-23.927-2.393-35.093-7.179-11.166-4.785-20.737-11.166-28.712-19.939-7.976-8.773-14.357-18.344-19.142-29.51s-6.38-23.927-6.38-36.688v-.798h8.773v.798c-.798 11.963 1.595 22.332 5.583 33.498 3.988 10.368 9.57 19.141 16.749 27.117 7.178 7.976 16.748 14.356 26.32 18.344 10.368 4.785 20.736 6.38 31.902 6.38s22.332-2.392 31.903-6.38c9.57-3.988 19.141-10.368 26.32-18.344 7.177-7.976 13.558-16.749 16.748-27.117 3.988-10.369 5.583-21.535 5.583-33.498v-.798h8.773v.798c.798 12.761-1.595 24.725-6.38 36.688-3.988 11.166-10.369 20.737-19.142 29.51-7.975 8.773-18.344 15.154-28.712 19.94-10.369 3.987-22.332 7.177-35.093 7.177z"/>
  <path fill="#252526" d="M46.365 168.392v-11.166h-8.773v11.166zM216.246 157.226h-7.975v11.166h7.975z"/>
  <path fill="#252526" d="M221.032 164.405c-18.344 0-35.093-4.786-51.045-8.774-7.975-2.392-15.153-6.38-20.736-8.773v-.797c-13.559-6.381-14.356-20.737-13.559-32.7 0-3.191-.797-7.179-3.988-9.571-1.595-.798-3.19-1.596-4.785-1.596-1.595 0-3.988.798-4.785 1.596-3.19 2.392-3.988 6.38-3.988 9.57 1.595 11.964.797 25.522-13.559 31.903-5.583 2.393-12.761 7.976-20.737 10.368-15.951 3.988-32.7 8.774-51.044 8.774-7.178 0-13.558-7.179-15.154-14.357-2.392-10.368-6.38-27.117-6.38-41.473 0-5.583 3.19-11.964 8.773-14.356 19.142-8.774 58.222-11.964 74.971-11.964 6.38 0 11.166 2.393 15.154 6.38 5.583-2.392 11.166-3.987 16.749-3.987 5.583 0 11.166 1.595 16.749 3.988 3.19-3.19 7.975-6.38 15.154-6.38 9.57 0 52.639 1.594 74.97 11.165 5.584 2.393 8.774 7.976 8.774 13.559-.798 14.356-3.988 32.7-6.38 43.068-1.596 7.178-7.976 14.357-15.154 14.357zm-59.818-69.389c-7.975 0-9.57 7.178-10.368 7.976-.798 3.988-1.595 10.368-2.393 17.546 0 6.38 2.393 11.166 7.178 13.559 17.547 7.976 38.283 11.964 62.21 11.964 1.596 0 3.19-1.596 3.988-3.19 2.393-8.774 5.583-22.333 5.583-35.094 0-.797-.797-2.392-1.595-2.392-15.154-7.976-51.044-10.369-64.603-10.369zm-133.99 10.369c-.798.797-1.596 1.595-1.596 2.392 0 12.761 3.19 26.32 5.583 35.093.798 1.595 2.393 3.19 3.988 3.19 24.724 0 44.664-3.987 62.21-11.963 4.785-2.393 7.178-7.178 7.178-13.559 0-5.583-.797-11.166-2.393-17.546 0-1.595-1.595-7.976-10.368-7.976-6.38 0-45.461 1.595-64.603 10.369z"/>
</svg>
